icons/circle/48/trackma.svg

<svg version="1.1" viewBox="0 0 48 48" xmlns="http://www.w3.org/2000/svg">
 <defs>
  <linearGradient id="linearGradient3764" x1="1" x2="47" gradientTransform="matrix(0 -1 1 0 -1.5e-6 48)" gradientUnits="userSpaceOnUse">
   <stop style="stop-color:#0d4c86" offset="0"/>
   <stop style="stop-color:#0f5799" offset="1"/>
  </linearGradient>
 </defs>
 <path d="m36.31 5c5.859 4.062 9.688 10.831 9.688 18.5 0 12.426-10.07 22.5-22.5 22.5-7.669 0-14.438-3.828-18.5-9.688 1.037 1.822 2.306 3.499 3.781 4.969 4.085 3.712 9.514 5.969 15.469 5.969 12.703 0 23-10.298 23-23 0-5.954-2.256-11.384-5.969-15.469-1.469-1.475-3.147-2.744-4.969-3.781zm4.969 3.781c3.854 4.113 6.219 9.637 6.219 15.719 0 12.703-10.297 23-23 23-6.081 0-11.606-2.364-15.719-6.219 4.16 4.144 9.883 6.719 16.219 6.719 12.703 0 23-10.298 23-23 0-6.335-2.575-12.06-6.719-16.219z" style="opacity:.05"/>
 <path d="m41.28 8.781c3.712 4.085 5.969 9.514 5.969 15.469 0 12.703-10.297 23-23 23-5.954 0-11.384-2.256-15.469-5.969 4.113 3.854 9.637 6.219 15.719 6.219 12.703 0 23-10.298 23-23 0-6.081-2.364-11.606-6.219-15.719z" style="opacity:.1"/>
 <path d="m31.25 2.375c8.615 3.154 14.75 11.417 14.75 21.13 0 12.426-10.07 22.5-22.5 22.5-9.708 0-17.971-6.135-21.12-14.75a23 23 0 0 0 44.875 -7 23 23 0 0 0 -16 -21.875z" style="opacity:.2"/>
 <path d="m24 1c12.703 0 23 10.297 23 23s-10.297 23-23 23-23-10.297-23-23 10.297-23 23-23z" style="fill:url(#linearGradient3764)"/>
 <path d="m40.03 7.531c3.712 4.084 5.969 9.514 5.969 15.469 0 12.703-10.297 23-23 23-5.954 0-11.384-2.256-15.469-5.969 4.178 4.291 10.01 6.969 16.469 6.969 12.703 0 23-10.298 23-23 0-6.462-2.677-12.291-6.969-16.469z" style="opacity:.1"/>
 <path d="m22 18c-0.15362-1.7058-0.29472-3.4191 1-6 3.8705 1.5613 4.3426 2.1403 7 5 4 2 7 6 7 10 0 6-8 9-12 9-3.4914 0-8-3-9-7-2.7379-1.5707-4-3-5-5 2-3 6.23-4.7877 11-6z" style="opacity:.1"/>
 <path d="m21 17c-0.15362-1.7058-0.29472-3.4191 1-6 3.8705 1.5613 4.3426 2.1403 7 5 4 2 7 6 7 10 0 6-8 9-12 9-3.4914 0-8-3-9-7-2.7379-1.5707-4-3-5-5 2-3 6.23-4.7877 11-6z" style="fill:#f9f9f9"/>
 <circle cx="23.5" cy="27.5" r="1.5" style="fill-opacity:.92891;fill:#333"/>
 <ellipse transform="matrix(.86869 -.49535 .50466 .86332 0 0)" cx="15.047" cy="37.013" rx="1.0877" ry="1.6215" style="fill-opacity:.92891;fill:#333"/>
 <path d="m28.7 28.5c0.51914 0.35287 1.3 0.17425 1.8 0 0.0039 0.48204 0.02802 0.97499-1.1755 0.803-0.014597 0.697-1.3245 1.3664-1.6245 0.397 0.3-0.10524 1-0.10809 1-1.2z" style="fill-opacity:.99052;fill:#333"/>
</svg>

<svg viewBox="0 0 48 48" xmlns="http://www.w3.org/2000/svg">
  <defs>
    <linearGradient id="a" x1="1" x2="47" gradientTransform="rotate(-90 24 24)" gradientUnits="userSpaceOnUse">
      <stop offset="0" stop-color="#0d4c86"/>
      <stop offset="1" stop-color="#0f5799"/>
    </linearGradient>
  </defs>
  <path d="M36.31 5c5.859 4.062 9.688 10.831 9.688 18.5 0 12.426-10.07 22.5-22.5 22.5-7.669 0-14.438-3.828-18.5-9.688a23.24 23.24 0 0 0 3.781 4.969 22.923 22.923 0 0 0 15.469 5.969c12.703 0 23-10.298 23-23a22.92 22.92 0 0 0-5.969-15.469A23.216 23.216 0 0 0 36.31 5zm4.969 3.781A22.911 22.911 0 0 1 47.498 24.5c0 12.703-10.297 23-23 23a22.909 22.909 0 0 1-15.719-6.219C12.939 45.425 18.662 48 24.998 48c12.703 0 23-10.298 23-23 0-6.335-2.575-12.06-6.719-16.219z" opacity=".05"/>
  <path d="M41.28 8.781a22.923 22.923 0 0 1 5.969 15.469c0 12.703-10.297 23-23 23A22.92 22.92 0 0 1 8.78 41.281 22.911 22.911 0 0 0 24.499 47.5c12.703 0 23-10.298 23-23A22.909 22.909 0 0 0 41.28 8.781z" opacity=".1"/>
  <path d="M31.25 2.375C39.865 5.529 46 13.792 46 23.505c0 12.426-10.07 22.5-22.5 22.5-9.708 0-17.971-6.135-21.12-14.75a23 23 0 0 0 44.875-7 23 23 0 0 0-16-21.875z" opacity=".2"/>
  <path d="M24 1c12.703 0 23 10.297 23 23S36.703 47 24 47 1 36.703 1 24 11.297 1 24 1z" fill="url(#a)"/>
  <path d="M40.03 7.531A22.922 22.922 0 0 1 45.999 23c0 12.703-10.297 23-23 23A22.92 22.92 0 0 1 7.53 40.031C11.708 44.322 17.54 47 23.999 47c12.703 0 23-10.298 23-23 0-6.462-2.677-12.291-6.969-16.469z" opacity=".1"/>
  <path d="M22 18c-.154-1.706-.295-3.42 1-6 3.87 1.561 4.343 2.14 7 5 4 2 7 6 7 10 0 6-8 9-12 9-3.491 0-8-3-9-7-2.738-1.57-4-3-5-5 2-3 6.23-4.788 11-6z" opacity=".1"/>
  <path d="M21 17c-.154-1.706-.295-3.42 1-6 3.87 1.561 4.343 2.14 7 5 4 2 7 6 7 10 0 6-8 9-12 9-3.491 0-8-3-9-7-2.738-1.57-4-3-5-5 2-3 6.23-4.788 11-6z" fill="#f9f9f9"/>
  <circle cx="23.5" cy="27.5" r="1.5" fill-opacity=".929" fill="#333"/>
  <ellipse transform="matrix(.86869 -.49535 .50466 .86332 0 0)" cx="15.047" cy="37.013" rx="1.088" ry="1.621" fill-opacity=".929" fill="#333"/>
  <path d="M28.7 28.5c.52.353 1.3.174 1.8 0 .004.482.028.975-1.175.803C29.31 30 28 30.669 27.7 29.7c.3-.105 1-.108 1-1.2z" fill-opacity=".991" fill="#333"/>
</svg>
